polaris-icons/icons/newicons/BuyButtonMajor.svg

<svg width="20" height="20" viewBox="0 0 20 20" fill="none" xmlns="http://www.w3.org/2000/svg">
<path d="M5.75 2C4.7835 2 4 2.7835 4 3.75V7.25C4 8.2165 4.7835 9 5.75 9C6.16421 9 6.5 8.66421 6.5 8.25C6.5 7.83579 6.16421 7.5 5.75 7.5C5.61193 7.5 5.5 7.38807 5.5 7.25V3.75C5.5 3.61193 5.61193 3.5 5.75 3.5H14.25C14.3881 3.5 14.5 3.61193 14.5 3.75V7.25C14.5 7.38807 14.3881 7.5 14.25 7.5H13.75C13.3358 7.5 13 7.83579 13 8.25C13 8.66421 13.3358 9 13.75 9H14.25C15.2165 9 16 8.2165 16 7.25V3.75C16 2.7835 15.2165 2 14.25 2H5.75Z" fill="black"/>
<path fill-rule="evenodd" clip-rule="evenodd" d="M9.88085 4.5C8.63821 4.5 7.63085 5.50736 7.63085 6.75V11.1521L6.37206 10.6713C5.44247 10.3162 4.40441 10.8075 4.08973 11.7516C3.90347 12.3104 4.01111 12.9254 4.3761 13.3877L7.49191 17.3344C7.82378 17.7547 8.32987 18 8.86545 18H13.5463C14.392 18 15.1168 17.3952 15.2681 16.563L15.9512 12.806C16.1161 11.8986 15.5486 11.0188 14.6538 10.7952L12.1309 10.1644V6.75C12.1309 5.50736 11.1235 4.5 9.88085 4.5ZM9.13085 6.75C9.13085 6.33579 9.46664 6 9.88085 6C10.2951 6 10.6309 6.33579 10.6309 6.75V10.75C10.6309 11.0942 10.8651 11.3941 11.199 11.4776L14.29 12.2504C14.4178 12.2823 14.4989 12.408 14.4754 12.5376L13.7922 16.2947C13.7706 16.4136 13.6671 16.5 13.5463 16.5H8.86545C8.78894 16.5 8.71664 16.465 8.66923 16.4049L5.55342 12.4582C5.50159 12.3926 5.48631 12.3053 5.51276 12.2259C5.55744 12.0919 5.70484 12.0221 5.83684 12.0725L8.11324 12.942C8.34379 13.0301 8.6029 12.9991 8.80617 12.8591C9.00944 12.7192 9.13085 12.4882 9.13085 12.2414V6.75Z" fill="black"/>
</svg>

<svg viewBox="0 0 20 20" fill="none" xmlns="http://www.w3.org/2000/svg"><path d="M5.75 2a1.75 1.75 0 0 0-1.75 1.75v3.5c0 .966.784 1.75 1.75 1.75a.75.75 0 0 0 0-1.5.25.25 0 0 1-.25-.25v-3.5a.25.25 0 0 1 .25-.25h8.5a.25.25 0 0 1 .25.25v3.5a.25.25 0 0 1-.25.25h-.5a.75.75 0 0 0 0 1.5h.5a1.75 1.75 0 0 0 1.75-1.75v-3.5a1.75 1.75 0 0 0-1.75-1.75h-8.5Z" fill="#000"/><path fill-rule="evenodd" clip-rule="evenodd" d="M9.88 4.5a2.25 2.25 0 0 0-2.25 2.25v4.402l-1.258-.48a1.748 1.748 0 0 0-1.996 2.716l3.116 3.946c.332.42.838.666 1.373.666h4.681a1.75 1.75 0 0 0 1.722-1.437l.683-3.757a1.75 1.75 0 0 0-1.297-2.01l-2.523-.632v-3.414a2.25 2.25 0 0 0-2.25-2.25Zm-.75 2.25a.75.75 0 0 1 1.5 0v4a.75.75 0 0 0 .569.728l3.091.772a.25.25 0 0 1 .185.288l-.683 3.757a.25.25 0 0 1-.246.205h-4.68a.25.25 0 0 1-.197-.095l-3.116-3.947a.248.248 0 0 1 .284-.386l2.276.87a.75.75 0 0 0 1.018-.7v-5.492Z" fill="#000"/></svg>
